Newaita-dark/.places-blue/64/folder-git.svg

<?xml version="1.0" encoding="UTF-8"?>
<svg xmlns="http://www.w3.org/2000/svg" xmlns:xlink="http://www.w3.org/1999/xlink" width="64px" height="64px" viewBox="0 0 64 64" version="1.1">
<defs>
<linearGradient id="linear0" gradientUnits="userSpaceOnUse" x1="254" y1="233.5" x2="254" y2="254.666672" gradientTransform="matrix(0.125012,0,0,0.125012,-0.00000763012,26.877574)">
<stop offset="0" style="stop-color:rgb(0%,0%,0%);stop-opacity:0.27451;"/>
<stop offset="1" style="stop-color:rgb(0%,0%,0%);stop-opacity:0;"/>
</linearGradient>
<radialGradient id="radial0" gradientUnits="userSpaceOnUse" cx="450.908936" cy="189.579361" fx="450.908936" fy="189.579361" r="21.166656" gradientTransform="matrix(0.000000348341,-0.156265,-0.281277,-0.000000203077,108.230425,127.190669)">
<stop offset="0" style="stop-color:rgb(0%,0%,0%);stop-opacity:0.313726;"/>
<stop offset="0.222222" style="stop-color:rgb(0%,0%,0%);stop-opacity:0.27451;"/>
<stop offset="1" style="stop-color:rgb(0%,0%,0%);stop-opacity:0;"/>
</radialGradient>
<radialGradient id="radial1" gradientUnits="userSpaceOnUse" cx="450.908936" cy="189.579361" fx="450.908936" fy="189.579361" r="21.166656" gradientTransform="matrix(-0.000000348341,0.156265,0.281277,0.000000203077,-44.724356,-15.054954)">
<stop offset="0" style="stop-color:rgb(0%,0%,0%);stop-opacity:0.313726;"/>
<stop offset="0.222222" style="stop-color:rgb(0%,0%,0%);stop-opacity:0.27451;"/>
<stop offset="1" style="stop-color:rgb(0%,0%,0%);stop-opacity:0;"/>
</radialGradient>
<radialGradient id="radial2" gradientUnits="userSpaceOnUse" cx="450.908936" cy="189.579361" fx="450.908936" fy="189.579361" r="21.166656" gradientTransform="matrix(-0.000000348341,-0.156265,0.281277,-0.000000203077,-44.724356,127.190669)">
<stop offset="0" style="stop-color:rgb(0%,0%,0%);stop-opacity:0.313726;"/>
<stop offset="0.222222" style="stop-color:rgb(0%,0%,0%);stop-opacity:0.27451;"/>
<stop offset="1" style="stop-color:rgb(0%,0%,0%);stop-opacity:0;"/>
</radialGradient>
<radialGradient id="radial3" gradientUnits="userSpaceOnUse" cx="450.908936" cy="189.579361" fx="450.908936" fy="189.579361" r="21.166656" gradientTransform="matrix(0.000000348341,0.156265,-0.281277,0.000000203077,108.230422,-15.054955)">
<stop offset="0" style="stop-color:rgb(0%,0%,0%);stop-opacity:0.313726;"/>
<stop offset="0.222222" style="stop-color:rgb(0%,0%,0%);stop-opacity:0.27451;"/>
<stop offset="1" style="stop-color:rgb(0%,0%,0%);stop-opacity:0;"/>
</radialGradient>
<linearGradient id="linear1" gradientUnits="userSpaceOnUse" x1="254" y1="-147.5" x2="254" y2="-31.083334" gradientTransform="matrix(0.125012,0,0,0.125012,0.00000249951,26.877563)">
<stop offset="0" style="stop-color:rgb(64.313728%,64.313728%,64.313728%);stop-opacity:0;"/>
<stop offset="1" style="stop-color:rgb(100%,100%,100%);stop-opacity:0.196078;"/>
</linearGradient>
<linearGradient id="linear2" gradientUnits="userSpaceOnUse" x1="254" y1="233.5" x2="254" y2="-105.166656" gradientTransform="matrix(0.125012,0,0,0.125012,-0.00000362479,26.877566)">
<stop offset="0" style="stop-color:rgb(34.509805%,34.509805%,34.509805%);stop-opacity:0;"/>
<stop offset="1" style="stop-color:rgb(98.039216%,98.039216%,98.039216%);stop-opacity:0.196078;"/>
</linearGradient>
</defs>
<g id="surface1">
<path style=" stroke:none;fill-rule:nonzero;fill:url(#linear0);" d="M 7.9375 56.066406 L 55.566406 56.066406 L 55.566406 58.714844 L 7.9375 58.714844 Z M 7.9375 56.066406 "/>
<path style=" stroke:none;fill-rule:nonzero;fill:url(#radial0);" d="M 55.566406 56.066406 L 60.859375 56.066406 L 60.859375 53.421875 L 55.566406 53.421875 Z M 55.566406 56.066406 "/>
<path style=" stroke:none;fill-rule:nonzero;fill:url(#radial1);" d="M 7.9375 56.066406 L 2.644531 56.066406 L 2.644531 58.714844 L 7.9375 58.714844 Z M 7.9375 56.066406 "/>
<path style=" stroke:none;fill-rule:nonzero;fill:url(#radial2);" d="M 7.9375 56.066406 L 2.644531 56.066406 L 2.644531 53.421875 L 7.9375 53.421875 Z M 7.9375 56.066406 "/>
<path style=" stroke:none;fill-rule:nonzero;fill:url(#radial3);" d="M 55.566406 56.066406 L 60.859375 56.066406 L 60.859375 58.714844 L 55.566406 58.714844 Z M 55.566406 56.066406 "/>
<path style=" stroke:none;fill-rule:nonzero;fill:rgb(25.882354%,64.705884%,96.078432%);fill-opacity:1;" d="M 14.554688 8.4375 L 57.550781 8.4375 C 59.015625 8.4375 60.199219 9.621094 60.199219 11.085938 L 60.199219 21.007812 C 60.199219 22.46875 59.015625 23.652344 57.550781 23.652344 L 14.554688 23.652344 C 13.09375 23.652344 11.90625 22.46875 11.90625 21.007812 L 11.90625 11.085938 C 11.90625 9.621094 13.09375 8.4375 14.554688 8.4375 Z M 14.554688 8.4375 "/>
<path style=" stroke:none;fill-rule:nonzero;fill:url(#linear1);" d="M 14.554688 8.4375 L 57.550781 8.4375 C 59.015625 8.4375 60.199219 9.621094 60.199219 11.085938 L 60.199219 21.007812 C 60.199219 22.46875 59.015625 23.652344 57.550781 23.652344 L 14.554688 23.652344 C 13.09375 23.652344 11.90625 22.46875 11.90625 21.007812 L 11.90625 11.085938 C 11.90625 9.621094 13.09375 8.4375 14.554688 8.4375 Z M 14.554688 8.4375 "/>
<path style=" stroke:none;fill-rule:nonzero;fill:rgb(90.196079%,90.196079%,90.196079%);fill-opacity:0.392157;" d="M 14.554688 8.613281 C 13.085938 8.613281 11.90625 9.792969 11.90625 11.261719 L 11.90625 11.589844 C 11.90625 10.125 13.085938 8.945312 14.554688 8.945312 L 57.550781 8.945312 C 59.019531 8.945312 60.199219 10.125 60.199219 11.589844 L 60.199219 11.261719 C 60.199219 9.792969 59.019531 8.613281 57.550781 8.613281 Z M 14.554688 8.613281 "/>
<path style=" stroke:none;fill-rule:nonzero;fill:rgb(12.941177%,12.941177%,12.941177%);fill-opacity:1;" d="M 14.554688 8.25 C 12.988281 8.25 11.71875 9.519531 11.71875 11.085938 L 11.71875 21.007812 C 11.71875 22.574219 12.988281 23.839844 14.554688 23.839844 L 57.550781 23.839844 C 59.117188 23.839844 60.386719 22.574219 60.386719 21.007812 L 60.386719 11.085938 C 60.386719 9.519531 59.117188 8.25 57.550781 8.25 Z M 14.554688 8.625 L 57.550781 8.625 C 58.917969 8.625 60.011719 9.71875 60.011719 11.085938 L 60.011719 21.007812 C 60.011719 22.371094 58.917969 23.464844 57.550781 23.464844 L 14.554688 23.464844 C 13.1875 23.464844 12.09375 22.371094 12.09375 21.007812 L 12.09375 11.085938 C 12.09375 9.71875 13.1875 8.625 14.554688 8.625 Z M 14.554688 8.625 "/>
<path style=" stroke:none;fill-rule:nonzero;fill:rgb(39.215687%,70.980394%,96.470588%);fill-opacity:1;" d="M 5.292969 13.730469 C 3.828125 13.730469 2.644531 14.910156 2.644531 16.375 L 2.644531 53.421875 C 2.644531 54.886719 3.828125 56.066406 5.292969 56.066406 L 58.214844 56.066406 C 59.679688 56.066406 60.859375 54.886719 60.859375 53.421875 L 60.859375 20.34375 L 25.136719 20.34375 C 23.671875 20.34375 22.492188 19.164062 22.492188 17.699219 L 22.492188 13.730469 Z M 5.292969 13.730469 "/>
<path style=" stroke:none;fill-rule:nonzero;fill:url(#linear2);" d="M 5.292969 13.730469 C 3.828125 13.730469 2.644531 14.910156 2.644531 16.375 L 2.644531 53.421875 C 2.644531 54.886719 3.828125 56.066406 5.292969 56.066406 L 58.214844 56.066406 C 59.679688 56.066406 60.859375 54.886719 60.859375 53.421875 L 60.859375 20.34375 L 25.136719 20.34375 C 23.671875 20.34375 22.492188 19.164062 22.492188 17.699219 L 22.492188 13.730469 Z M 5.292969 13.730469 "/>
<path style=" stroke:none;fill-rule:nonzero;fill:rgb(0%,0%,0%);fill-opacity:0.196078;" d="M 5.292969 56.066406 C 3.828125 56.066406 2.644531 54.886719 2.644531 53.421875 L 2.644531 53.089844 C 2.644531 54.558594 3.828125 55.738281 5.292969 55.738281 L 58.214844 55.738281 C 59.679688 55.738281 60.859375 54.558594 60.859375 53.089844 L 60.859375 53.421875 C 60.859375 54.886719 59.679688 56.066406 58.214844 56.066406 Z M 5.292969 56.066406 "/>
<path style=" stroke:none;fill-rule:nonzero;fill:rgb(90.196079%,90.196079%,90.196079%);fill-opacity:0.392157;" d="M 5.292969 13.894531 C 3.828125 13.894531 2.644531 15.074219 2.644531 16.542969 L 2.644531 16.871094 C 2.644531 15.40625 3.828125 14.226562 5.292969 14.226562 L 22.492188 14.226562 L 22.492188 13.894531 Z M 5.292969 13.894531 "/>
<path style=" stroke:none;fill-rule:nonzero;fill:rgb(90.196079%,90.196079%,90.196079%);fill-opacity:0.392157;" d="M 24.972656 20.675781 C 23.507812 20.675781 22.328125 19.496094 22.328125 18.03125 L 22.328125 17.699219 C 22.328125 19.164062 23.507812 20.347656 24.972656 20.34375 L 60.859375 20.34375 L 60.859375 20.675781 Z M 24.972656 20.675781 "/>
<path style=" stroke:none;fill-rule:nonzero;fill:rgb(12.941177%,12.941177%,12.941177%);fill-opacity:1;" d="M 5.292969 13.542969 C 3.726562 13.542969 2.457031 14.808594 2.457031 16.375 L 2.457031 53.421875 C 2.457031 54.988281 3.726562 56.253906 5.292969 56.253906 L 58.214844 56.253906 C 59.78125 56.253906 61.046875 54.988281 61.046875 53.421875 L 61.046875 19.96875 L 25.136719 19.96875 C 23.773438 19.96875 22.679688 18.878906 22.679688 17.511719 L 22.679688 13.542969 Z M 5.292969 13.917969 L 22.304688 13.917969 L 22.304688 17.511719 C 22.304688 19.078125 23.570312 20.34375 25.136719 20.34375 L 60.671875 20.34375 L 60.671875 53.421875 C 60.671875 54.785156 59.578125 55.878906 58.214844 55.878906 L 5.292969 55.878906 C 3.925781 55.878906 2.832031 54.785156 2.832031 53.421875 L 2.832031 16.375 C 2.832031 15.011719 3.925781 13.917969 5.292969 13.917969 Z M 5.292969 13.917969 "/>
<path style=" stroke:none;fill-rule:nonzero;fill:rgb(12.941177%,58.823532%,95.294118%);fill-opacity:1;" d="M 25.730469 25.574219 C 23.992188 25.574219 22.527344 26.675781 21.984375 28.222656 L 21.757812 28.222656 C 21.027344 28.222656 20.4375 28.8125 20.4375 29.542969 C 20.4375 30.277344 21.027344 30.867188 21.757812 30.867188 L 21.984375 30.867188 C 22.527344 32.414062 23.992188 33.515625 25.730469 33.515625 C 26.3125 33.515625 26.867188 33.390625 27.363281 33.164062 L 35.339844 41.140625 C 35.113281 41.636719 34.988281 42.191406 34.988281 42.773438 C 34.988281 44.972656 36.761719 46.746094 38.960938 46.746094 C 41.15625 46.746094 42.929688 44.972656 42.929688 42.773438 C 42.929688 40.578125 41.15625 38.804688 38.960938 38.804688 C 38.316406 38.804688 37.707031 38.957031 37.171875 39.230469 L 29.273438 31.332031 C 29.351562 31.183594 29.417969 31.027344 29.472656 30.867188 L 35.214844 30.867188 C 35.757812 32.414062 37.222656 33.515625 38.960938 33.515625 C 41.15625 33.515625 42.929688 31.742188 42.929688 29.542969 C 42.929688 27.347656 41.15625 25.574219 38.960938 25.574219 C 37.222656 25.574219 35.757812 26.675781 35.214844 28.222656 L 29.472656 28.222656 C 28.929688 26.675781 27.464844 25.574219 25.730469 25.574219 Z M 25.730469 25.574219 "/>
<path style=" stroke:none;fill-rule:nonzero;fill:rgb(0%,0%,0%);fill-opacity:0.235294;" d="M 25.730469 25.574219 C 23.996094 25.574219 22.527344 26.675781 21.984375 28.222656 L 21.757812 28.222656 C 21.027344 28.222656 20.4375 28.8125 20.4375 29.542969 C 20.4375 29.628906 20.445312 29.710938 20.460938 29.789062 C 20.574219 29.171875 21.109375 28.710938 21.757812 28.710938 L 21.984375 28.710938 C 22.527344 27.164062 23.996094 26.0625 25.730469 26.0625 C 27.464844 26.0625 28.929688 27.164062 29.472656 28.710938 L 35.214844 28.710938 C 35.757812 27.164062 37.222656 26.0625 38.960938 26.0625 C 41.074219 26.0625 42.796875 27.703125 42.921875 29.789062 C 42.925781 29.707031 42.929688 29.625 42.929688 29.542969 C 42.929688 27.347656 41.15625 25.574219 38.960938 25.574219 C 37.222656 25.574219 35.757812 26.675781 35.214844 28.222656 L 29.472656 28.222656 C 28.929688 26.675781 27.464844 25.574219 25.730469 25.574219 Z M 29.425781 31.484375 C 29.378906 31.597656 29.328125 31.710938 29.273438 31.820312 L 37.171875 39.714844 C 37.707031 39.445312 38.316406 39.292969 38.960938 39.292969 C 41.074219 39.292969 42.796875 40.933594 42.921875 43.019531 C 42.925781 42.9375 42.929688 42.855469 42.929688 42.773438 C 42.929688 40.578125 41.15625 38.804688 38.960938 38.804688 C 38.316406 38.804688 37.707031 38.957031 37.171875 39.230469 Z M 35.203125 41.488281 C 35.066406 41.890625 34.988281 42.324219 34.988281 42.773438 C 34.988281 42.855469 34.992188 42.9375 34.996094 43.019531 C 35.027344 42.523438 35.144531 42.054688 35.339844 41.628906 Z M 35.203125 41.488281 "/>
<path style=" stroke:none;fill-rule:nonzero;fill:rgb(12.941177%,12.941177%,12.941177%);fill-opacity:1;" d="M 25.730469 25.386719 C 23.964844 25.386719 22.464844 26.484375 21.863281 28.035156 L 21.757812 28.035156 C 20.925781 28.035156 20.25 28.710938 20.25 29.542969 C 20.25 30.378906 20.925781 31.054688 21.757812 31.054688 L 21.863281 31.054688 C 22.464844 32.605469 23.964844 33.703125 25.730469 33.703125 C 26.292969 33.703125 26.824219 33.578125 27.3125 33.378906 L 35.125 41.191406 C 34.925781 41.679688 34.800781 42.210938 34.800781 42.773438 C 34.800781 45.074219 36.660156 46.933594 38.960938 46.933594 C 41.257812 46.933594 43.117188 45.074219 43.117188 42.773438 C 43.117188 40.476562 41.257812 38.617188 38.960938 38.617188 C 38.335938 38.617188 37.75 38.765625 37.21875 39.011719 L 29.496094 31.289062 C 29.53125 31.214844 29.566406 31.136719 29.597656 31.054688 L 35.09375 31.054688 C 35.695312 32.605469 37.195312 33.703125 38.960938 33.703125 C 41.257812 33.703125 43.117188 31.84375 43.117188 29.542969 C 43.117188 27.246094 41.257812 25.386719 38.960938 25.386719 C 37.195312 25.386719 35.695312 26.484375 35.09375 28.035156 L 29.59375 28.035156 C 28.992188 26.484375 27.492188 25.386719 25.730469 25.386719 Z M 25.730469 25.761719 C 27.382812 25.761719 28.78125 26.8125 29.296875 28.285156 L 29.472656 28.410156 L 35.214844 28.410156 L 35.390625 28.285156 C 35.910156 26.8125 37.304688 25.761719 38.960938 25.761719 C 41.058594 25.761719 42.742188 27.445312 42.742188 29.542969 C 42.742188 31.644531 41.058594 33.328125 38.960938 33.328125 C 37.304688 33.328125 35.90625 32.277344 35.390625 30.804688 L 35.214844 30.679688 L 29.472656 30.679688 L 29.296875 30.804688 C 29.242188 30.957031 29.179688 31.105469 29.105469 31.25 L 29.140625 31.464844 L 37.039062 39.359375 L 37.253906 39.394531 C 37.765625 39.136719 38.34375 38.992188 38.960938 38.992188 C 41.058594 38.992188 42.742188 40.675781 42.742188 42.773438 C 42.742188 44.875 41.058594 46.558594 38.960938 46.558594 C 36.859375 46.558594 35.175781 44.875 35.175781 42.773438 C 35.175781 42.21875 35.296875 41.691406 35.511719 41.21875 L 35.472656 41.007812 L 27.496094 33.03125 L 27.285156 32.992188 C 26.8125 33.207031 26.285156 33.328125 25.730469 33.328125 C 24.074219 33.328125 22.675781 32.277344 22.160156 30.804688 L 21.984375 30.679688 L 21.757812 30.679688 C 21.128906 30.679688 20.625 30.175781 20.625 29.542969 C 20.625 28.914062 21.128906 28.410156 21.757812 28.410156 L 21.984375 28.410156 L 22.160156 28.285156 C 22.675781 26.8125 24.074219 25.761719 25.730469 25.761719 Z M 25.730469 25.761719 "/>
<path style=" stroke:none;fill-rule:nonzero;fill:rgb(100%,100%,100%);fill-opacity:0.392157;" d="M 20.445312 29.898438 C 20.441406 29.953125 20.4375 30.007812 20.4375 30.066406 C 20.4375 30.796875 21.027344 31.386719 21.757812 31.386719 L 21.984375 31.386719 C 22.527344 32.933594 23.996094 34.035156 25.730469 34.035156 C 26.3125 34.035156 26.867188 33.910156 27.363281 33.683594 L 35.242188 41.5625 C 35.273438 41.484375 35.304688 41.40625 35.339844 41.328125 L 27.363281 33.355469 C 26.867188 33.578125 26.3125 33.703125 25.730469 33.703125 C 23.996094 33.703125 22.527344 32.601562 21.984375 31.058594 L 21.757812 31.058594 C 21.082031 31.058594 20.527344 30.554688 20.445312 29.898438 Z M 42.925781 29.898438 C 42.839844 32.019531 41.101562 33.703125 38.960938 33.703125 C 37.222656 33.703125 35.757812 32.601562 35.214844 31.058594 L 29.472656 31.058594 C 29.417969 31.21875 29.351562 31.371094 29.273438 31.523438 L 29.378906 31.628906 C 29.414062 31.550781 29.445312 31.46875 29.472656 31.386719 L 35.214844 31.386719 C 35.757812 32.933594 37.222656 34.035156 38.960938 34.035156 C 41.15625 34.035156 42.929688 32.261719 42.929688 30.066406 C 42.929688 30.007812 42.925781 29.953125 42.925781 29.898438 Z M 42.925781 43.128906 C 42.839844 45.25 41.101562 46.933594 38.960938 46.933594 C 36.816406 46.933594 35.078125 45.25 34.992188 43.128906 C 34.992188 43.183594 34.988281 43.238281 34.988281 43.296875 C 34.988281 45.492188 36.761719 47.265625 38.960938 47.265625 C 41.15625 47.265625 42.929688 45.492188 42.929688 43.296875 C 42.929688 43.238281 42.925781 43.183594 42.925781 43.128906 Z M 42.925781 43.128906 "/>
</g>
</svg>

<svg xmlns="http://www.w3.org/2000/svg" width="64pt" height="64pt" viewBox="0 0 64 64"><defs><linearGradient id="a" gradientUnits="userSpaceOnUse" x1="254" y1="233.5" x2="254" y2="254.667" gradientTransform="translate(0 26.878) scale(.12501)"><stop offset="0" stop-opacity=".275"/><stop offset="1" stop-opacity="0"/></linearGradient><radialGradient id="b" gradientUnits="userSpaceOnUse" cx="450.909" cy="189.579" fx="450.909" fy="189.579" r="21.167" gradientTransform="matrix(0 -.15626 -.28128 0 108.23 127.19)"><stop offset="0" stop-opacity=".314"/><stop offset=".222" stop-opacity=".275"/><stop offset="1" stop-opacity="0"/></radialGradient><radialGradient id="c" gradientUnits="userSpaceOnUse" cx="450.909" cy="189.579" fx="450.909" fy="189.579" r="21.167" gradientTransform="matrix(0 .15626 .28128 0 -44.724 -15.055)"><stop offset="0" stop-opacity=".314"/><stop offset=".222" stop-opacity=".275"/><stop offset="1" stop-opacity="0"/></radialGradient><radialGradient id="d" gradientUnits="userSpaceOnUse" cx="450.909" cy="189.579" fx="450.909" fy="189.579" r="21.167" gradientTransform="matrix(0 -.15626 .28128 0 -44.724 127.19)"><stop offset="0" stop-opacity=".314"/><stop offset=".222" stop-opacity=".275"/><stop offset="1" stop-opacity="0"/></radialGradient><radialGradient id="e" gradientUnits="userSpaceOnUse" cx="450.909" cy="189.579" fx="450.909" fy="189.579" r="21.167" gradientTransform="matrix(0 .15626 -.28128 0 108.23 -15.055)"><stop offset="0" stop-opacity=".314"/><stop offset=".222" stop-opacity=".275"/><stop offset="1" stop-opacity="0"/></radialGradient><linearGradient id="f" gradientUnits="userSpaceOnUse" x1="254" y1="-147.5" x2="254" y2="-31.083" gradientTransform="translate(0 26.878) scale(.12501)"><stop offset="0" stop-color="#a4a4a4" stop-opacity="0"/><stop offset="1" stop-color="#fff" stop-opacity=".196"/></linearGradient><linearGradient id="g" gradientUnits="userSpaceOnUse" x1="254" y1="233.5" x2="254" y2="-105.167" gradientTransform="translate(0 26.878) scale(.12501)"><stop offset="0" stop-color="#585858" stop-opacity="0"/><stop offset="1" stop-color="#fafafa" stop-opacity=".196"/></linearGradient><linearGradient id="h" gradientUnits="userSpaceOnUse" x1="254" y1="-147.5" x2="254" y2="233.5" gradientTransform="translate(0 26.878) scale(.12501)"><stop offset="0" stop-color="#a4a4a4" stop-opacity="0"/><stop offset="1" stop-color="#fff" stop-opacity=".196"/></linearGradient></defs><path d="M7.938 56.066h47.628v2.649H7.937zm0 0" fill="url(#a)"/><path d="M55.566 56.066h5.293v-2.644h-5.293zm0 0" fill="url(#b)"/><path d="M7.938 56.066H2.644v2.649h5.292zm0 0" fill="url(#c)"/><path d="M7.938 56.066H2.644v-2.644h5.292zm0 0" fill="url(#d)"/><path d="M55.566 56.066h5.293v2.649h-5.293zm0 0" fill="url(#e)"/><path d="M14.555 8.438H57.55a2.646 2.646 0 0 1 2.648 2.648v9.922a2.645 2.645 0 0 1-2.648 2.644H14.555a2.647 2.647 0 0 1-2.649-2.644v-9.922a2.648 2.648 0 0 1 2.649-2.649zm0 0" fill="#1e88e5"/><path d="M14.555 8.438H57.55a2.646 2.646 0 0 1 2.648 2.648v9.922a2.645 2.645 0 0 1-2.648 2.644H14.555a2.647 2.647 0 0 1-2.649-2.644v-9.922a2.648 2.648 0 0 1 2.649-2.649zm0 0" fill="url(#f)"/><path d="M14.555 8.438a2.64 2.64 0 0 0-2.649 2.648v.328a2.64 2.64 0 0 1 2.649-2.644H57.55a2.64 2.64 0 0 1 2.648 2.644v-.328a2.64 2.64 0 0 0-2.648-2.649zm0 0" fill="#e6e6e6" fill-opacity=".588"/><path d="M14.555 8.25a2.836 2.836 0 0 0-2.836 2.836v9.922a2.832 2.832 0 0 0 2.836 2.832H57.55a2.832 2.832 0 0 0 2.836-2.832v-9.922A2.836 2.836 0 0 0 57.55 8.25zm0 .375H57.55a2.45 2.45 0 0 1 2.46 2.46v9.923a2.45 2.45 0 0 1-2.46 2.457H14.555a2.45 2.45 0 0 1-2.461-2.457v-9.922a2.45 2.45 0 0 1 2.46-2.461zm0 0" fill="#212121"/><path d="M5.293 13.73a2.642 2.642 0 0 0-2.648 2.645v37.047a2.642 2.642 0 0 0 2.648 2.644h52.922a2.639 2.639 0 0 0 2.644-2.644V20.344H25.137a2.639 2.639 0 0 1-2.645-2.645V13.73zm0 0" fill="#42a5f5"/><path d="M5.293 13.73a2.642 2.642 0 0 0-2.648 2.645v37.047a2.642 2.642 0 0 0 2.648 2.644h52.922a2.639 2.639 0 0 0 2.644-2.644V20.344H25.137a2.639 2.639 0 0 1-2.645-2.645V13.73zm0 0" fill="url(#g)"/><path d="M5.293 56.066a2.642 2.642 0 0 1-2.648-2.644v-.332a2.643 2.643 0 0 0 2.648 2.648h52.922a2.64 2.64 0 0 0 2.644-2.648v.332a2.639 2.639 0 0 1-2.644 2.644zm0 0" fill-opacity=".196"/><path d="M5.293 13.73a2.642 2.642 0 0 0-2.648 2.645v.332a2.642 2.642 0 0 1 2.648-2.645h17.2v-.332zm0 0M24.973 20.512a2.64 2.64 0 0 1-2.645-2.649v-.328a2.637 2.637 0 0 0 2.645 2.645h35.886v.332zm0 0" fill="#e6e6e6" fill-opacity=".937"/><path d="M5.293 13.543a2.832 2.832 0 0 0-2.836 2.832v37.047a2.832 2.832 0 0 0 2.836 2.832h52.922a2.83 2.83 0 0 0 2.832-2.832V19.969h-35.91a2.447 2.447 0 0 1-2.457-2.457v-3.969zm0 .375h17.012v3.594a2.83 2.83 0 0 0 2.832 2.832h35.535v33.078a2.449 2.449 0 0 1-2.457 2.457H5.293a2.45 2.45 0 0 1-2.461-2.457V16.375a2.45 2.45 0 0 1 2.461-2.457zm0 0" fill="#212121"/><path d="M25.73 25.574a3.958 3.958 0 0 0-3.746 2.649h-.226c-.73 0-1.32.59-1.32 1.32 0 .734.59 1.324 1.32 1.324h.226a3.958 3.958 0 0 0 3.746 2.649c.582 0 1.137-.125 1.633-.352l7.977 7.977a3.925 3.925 0 0 0-.352 1.632c0 2.2 1.774 3.973 3.973 3.973a3.965 3.965 0 0 0 3.969-3.973 3.964 3.964 0 0 0-3.97-3.968c-.644 0-1.253.152-1.788.425l-7.899-7.898c.079-.148.145-.305.2-.465h5.742a3.958 3.958 0 0 0 3.746 2.649 3.965 3.965 0 0 0 3.969-3.973 3.964 3.964 0 0 0-3.97-3.969 3.958 3.958 0 0 0-3.745 2.649h-5.742a3.956 3.956 0 0 0-3.743-2.649zm0 0" fill="#1e88e5"/><path d="M25.73 25.574a3.958 3.958 0 0 0-3.746 2.649h-.226c-.73 0-1.32.59-1.32 1.32 0 .734.59 1.324 1.32 1.324h.226a3.958 3.958 0 0 0 3.746 2.649c.582 0 1.137-.125 1.633-.352l7.977 7.977a3.925 3.925 0 0 0-.352 1.632c0 2.2 1.774 3.973 3.973 3.973a3.965 3.965 0 0 0 3.969-3.973 3.964 3.964 0 0 0-3.97-3.968c-.644 0-1.253.152-1.788.425l-7.899-7.898c.079-.148.145-.305.2-.465h5.742a3.958 3.958 0 0 0 3.746 2.649 3.965 3.965 0 0 0 3.969-3.973 3.964 3.964 0 0 0-3.97-3.969 3.958 3.958 0 0 0-3.745 2.649h-5.742a3.956 3.956 0 0 0-3.743-2.649zm0 0" fill="url(#h)"/><path d="M25.73 25.387a4.143 4.143 0 0 0-3.867 2.648h-.105a1.509 1.509 0 0 0 0 3.02h.105a4.143 4.143 0 0 0 3.867 2.648c.563 0 1.094-.125 1.582-.324l7.813 7.812c-.2.489-.324 1.02-.324 1.582 0 2.301 1.86 4.16 4.16 4.16a4.155 4.155 0 0 0 4.156-4.16 4.154 4.154 0 0 0-4.156-4.156c-.625 0-1.211.149-1.742.395l-7.723-7.723c.035-.074.07-.152.102-.234h5.496a4.143 4.143 0 0 0 3.867 2.648 4.155 4.155 0 0 0 4.156-4.16 4.154 4.154 0 0 0-4.156-4.156 4.143 4.143 0 0 0-3.867 2.648h-5.5a4.142 4.142 0 0 0-3.864-2.648zm0 .375c1.653 0 3.051 1.05 3.567 2.523l.176.125h5.742l.176-.125a3.776 3.776 0 0 1 3.57-2.523 3.77 3.77 0 0 1 3.781 3.781 3.77 3.77 0 0 1-3.781 3.785 3.772 3.772 0 0 1-3.57-2.523l-.176-.125h-5.742l-.176.125c-.055.152-.117.3-.192.445l.036.215 7.898 7.894.215.036a3.777 3.777 0 0 1 1.707-.403 3.77 3.77 0 0 1 3.781 3.781 3.77 3.77 0 0 1-3.781 3.786 3.771 3.771 0 0 1-3.785-3.786c0-.554.12-1.082.336-1.554l-.04-.211-7.976-7.977-.21-.039c-.474.215-1 .336-1.556.336a3.772 3.772 0 0 1-3.57-2.523l-.176-.125h-.226a1.13 1.13 0 0 1-1.133-1.137c0-.629.504-1.133 1.133-1.133h.226l.176-.125a3.772 3.772 0 0 1 3.57-2.523zm0 0" fill="#212121"/></svg>
